X:261
T: St. Katharina
N: A0617
O: Europa, Mitteleuropa, Deutschland
N: Corners Gsgb 1625 No. 289
R: Romanze, Ballade, Lied, religioeses Lied
M: 3/2
L: 1/2
K: G
G | G2=F | _B2B | cdc | _B2
G | G2=F | _B2B | cdc | _B2
=f | =f2c | d2A | _B2A | G2

